X: 2331
T: The DRUNKEN TAILOR
%R: hornpipe, reel
B: James Kerr "Merry Melodies" v.2 p.36 #331
Z: 2016 John Chambers <jc:trillian.mit.edu>
M: C
L: 1/8
K: Edor
(d/c/) !segno!|\
BE (3EEE (BE)dE | dE (3EEE (BA)FA |\
AD (3DDD (AD)dD | AD (3DDD (BA)FA |\
BE (3EEE (BE)dE |
dE (3EEE (BA)FA |\
BABc defc | dBAF (3EEE Ez \
|:\
Be (3eee (dc)dB | ce (3eee (BA)FA |\
Be (3eee (dc)dB | AFDF (3EEE E2 |
Be (3eee (dc)dB | ce (3eee (BA)FA |\
[1 BABc dfec | dBAF (3EEE E2 :|\
[2 Bdce dfeg | fdec dBA"_D.S."d |]

%%sep 1 1 500
%%sep 1 1 500

